X: 12871
T: Fermoy Lasses, The
R: reel
M: 4/4
K: Eminor
|:GE{A}E{D}E BE{A}E{D}E|GE{A}E{D}E BcBA|GE{A}E{D}E BE{A}E{D}E|AFDF AcBA|
GE{A}E{D}E BE{A}E{D}E|GE{A}E{D}E BcBA|G{A}G{F}GF GBdB|AFDF AcBA:|
|:{A}G{F}GBG dGBG|{A}G{F}GBd efg2|{A}G{F}GBG dGBG|AFDF AcBA|
{A}G{F}GBG dGBG|{A}G{F}GBd efg2|afge dedB|AFDF AcBA:|

